X:1
T:Title
%%score 1 2 3
L:1/8
M:2/2
K:C
V:1 treble nm="Part_1"
V:2 treble-8 nm="Part_2"
V:3 treble-8 nm="Part_3"
V:1
 A8 | A8 | G8 | A8 | G8 | F8 | E8 | D8 | E4 C4- | C4 E4- | E2 F2 G4- | G4 E4- | E4 F4- | F4 D4 | %14
 C4 E4- | E2 D2 D4- | D4 C4 | D8 || D8 | D8 | F8 | D8 | E8 | C8 | z4 E4- | E4 F4 | G8 | F4 E4 | %28
 D8 | C4 A,4 | B,2 C2 D4- | D4 C4 | D8 || A8 | G8 | A4 c4- | c2 B2 A4- | A4 G4 | E4 F4- | F4 E4- | %40
 E4 D4 | E8 | C8 | E6 F2 | G4 A4- | A4 D4- | D4 E2 F2 | G4 F2 E2- | E2 D2 F4- | F2 E2 D4 | C4 E4- | %51
 E2 D2 D4- | D4 C4 | D8 || A8 | G8 | A8 | B4 c4 | B2 A2 G4- | G4 ^F4 | G8 | z4 G4- | G4 A4- | %63
 A4 c4- | c4 B4- | B4 A4 | G6 A2 | B8 | c2 B2 A4- | A4 ^G4 | A8 || A8 | c6 B2 | G8 | A8 | D8 | E8 | %77
 C4 E4- | E2 F2 G4- | G4 ^F4 | G8 | G4 F4- | F2 D2 E4 | D4 F4 | E4 C4 | D8 | C4 F4- | F2 G2 A4 | %88
 G6 F2 | E2 D2 D4- | D4 C4 | D8 || A8 | B8 | c4 A4- | A2 F2 A4 | G6 F2 | E4 G2 E2 | F4 D4- | %99
 D4 F4- | F2 E2 F4 | G4 A4 | z4 d4 | c2 B2 A4- | A2 G2 G4- | G4 ^F4 | G8 | A8 | c8 | A8 | c6 BA | %111
 G8 | B4 c4 | B4 A4 | G4 z4 | c4 B4- | B2 A2 A4- | A4 G4 | A8 || A8 | A8 | G8 | A8 | B6 A2 | c8 | %125
 B4 G4- | G4 A4- | A4 F4- | F2 E2 D4- | D2 C2 C4- | C4 B,4 | C8 | z4 C4 | E6 F2 | G8 | z4 G4 | %136
 F6 D2 | E8 | D8 | E4 C4- | C4 F4 | F4 E4- | E4 F4- | F2 E2 D4- | D2 B,2 C4 | D8 || A8 | c8 | G8 | %149
 A8 | D8 | E8 | z4 C4- | C4 E4- | E2 F2 G4- | G4 F4 | G8 | E4 F4- | F2 E2 D4- | D4 C4 | D8 | %161
 z4 F4- | F4 C4 | E6 F2 | G6 E2 | F4 E2 E2- | E2 D2 D4- | D2 B,2 C4 | D8 |] %169
V:2
 A8 | F4 D4 | E8 | F4 D4 | z4 G4 | (3:2:2A4 F2 D4 | C8 | G8 | C8 | F4 c4- | c2 B2 B4- | B4 G4 | %12
 A2 F2 D4 | z4 G4 | A2 c4 A2 | B4 A4- | A2 F2 G4 | A8 || A8 | B8 | c2 A4 F2 | G6 E2 | C4 c4 | %23
 F2 G2 A4- | A2 F2 G4- | G2 FE D4 | E8 | F2 D2 G2 B2- | B2 G2 A4 | G3 F D2 F2 | E2 G3 F A2- | %31
 A2 G2 G2 F2 | A8 || A6 F2 | E4 C4 | F8 | A2 B2 c4 | F4 z4 | A4 D4- | D4 E4 | A6 G2 | B4 G4- | %42
 G4 A2 B2 | c4 (3:2:2B4 G2 | B4 A2 c2- | c2 d2 A4 | B6 G2 | B4 c4- | c2 B2 d4 | c2 A2 G4 | C8 | %51
 F2 E2 A4- | A4 G4 | A8 || D4 F4 | E4 C4 | F4 D4 | G4 C4 | D4 E2 G2 | D8 | z4 E4 | C8 | E4 F4- | %63
 F2 E2 C4- | C4 G4- | G4 F4 | C8 | G4 E4 | F2 G2 A4 | E8 | e8 || d8 | c4 e4 | d4 c2 A2 | F4 D4 | %75
 G6 E2 | C4 z4 | F2 E2 C4 | G4 E4 | D8 | d4 e4 | B2 c2 d4 | c6 A2 | G4 D4 | z4 C4 | G8 | C4 D4 | %87
 A4 c2 d2 | e4 d2 B2 | c4 A4- | A4 G4 | A8 || e6 c2 | B4 d4 | c6 e2- | e2 d2 c4 | d6 B2 | A8 | %98
 D8- | D8 | D8 | z4 F4 | G4 E4 | F8 | G4 E4 | D8 | (3:2:2d8 c4 | c8 | z4 F4- | F4 c4- | %110
 c4 (3:2:1e6- | (3e2 d4 d6- | (3:2:2d2 B4 c2 A2 | G4 C4 | E4 F4- | F4 G2 E2 | C4 F4 | G6 FE | %118
 F4 D4 || D8- | D8 | E8 | F4 D4 | G8 | z4 A4 | E2 D2 C4- | C4 z4 | F4 c4- | c4 A4 | B2 A2 G4- | %130
 G2 E2 F4 | G8 | A4 G4 | c8 | z4 B4 | B6 c2 | d4 c4- | c2 A2 A4 | D4 G4 | c4 A4 | c2 Bc d4 | %141
 c6 A2 | B4 c4 | B2 A2 A4- | A4 G4 | A8 || e8- | e4 c4 | d4 c2 A2 | F8 | A4 B4- | B2 A2 c4- | %152
 c2 A2 A4 | F4 c4 | B2 G3 F E2 | D8 | E6 C2 | C4 D4 | E4 A4- | A4 G4 | A8 | d6 c2 | A8 | B4 A2 F2 | %164
 E4 C4 | D4 z2 E2 | D2 F3 G A2- | A2 G4 F2 | A8 |] %169
V:3
 A8 | c4 d4 | B8 | A6 F2 | E8 | D4 A4- | A4 c4 | B6 A2 | c8 | A8- | A4 G4 | E8 | A8 | (3:2:2B8 G4 | %14
 A8 | G4 F4 | E8 | D8 || D8 | G8 | F4 A4 | _B2 A2 G4- | G2 F2 A4- | A4 F4- | F4 z4 | E4 A4 | %26
 G4 B4 | A4 G4- | G4 F4 | E4 F4 | G4 D4 | E8 | D8 || A8 | B4 c4- | c2 B2 A4 | F8 | c8 | %38
 c4 (3:2:2d4 c2 | A4 G4 | F8 | E8- | E4 C4- | C4 E4- | E4 F4- | F2 E2 F4 | G8 | E4 A4 | G2 F2 D4 | %49
 A4 B4 | (3:2:2c4 A2 G4 | A4 F4 | E8 | D8 || A8 | B4 c4- | c4 d4- | d4 e4 | d4 B4 | A8 | G8- | G8 | %62
 c8 | A8 | e4 d2 d2- | d2 B2 c4- | c2 d2 e4 | d4 e4 | A4 c4 | B8 | A8 || D8 | A8 | B4 c4- | c4 d4 | %75
 B4 G4- | G4 A4- | A4 c4 | B4 G4 | A8 | G4 E4- | E2 C2 D4 | A8 | B4 A4- | A4 c4- | c4 B4 | %86
 c2 A4 G2 | F6 E2 | E4 G4 | A4 F4 | E8 | D8 || A8 | G8 | A8 | A8 | B8 | c8 | d8 | d8 | z4 d4 | %101
 c6 A2 | B8 | A4 c4 | B4 G4 | A8 | G8 | z4 A4- | A4 c4- | c4 A4- | A4 c4- | c2 B2 G4- | G4 A4 | %113
 B4 c4 | B4 A4- | A4 G4 | c4 A4 | B8 | A8 || d8 | f8 | e4 c4- | c4 d4- | d4 B4 | A4 (3:2:1e6- | %125
 (3:2:2e2 d4 e4 | c6 B2 | A6 G2 | F8 | G4 E4 | D8 | C8- | C8 | z4 C4 | E6 F2 | G8 | z4 A4- | %137
 A2 B2 c4 | d4 B4 | A6 GF | E4 D4 | A8 | G4 A4 | D4 F4 | E8 | D8 || A8- | A8 | B4 c4- | c4 F4- | %150
 F4 G4- | G4 A4- | A4 z4 | A8 | G4 B4 | A8 | G4 c4- | c2 B2 A4 | G4 F4 | E8 | D8- | D8 | F8 | %163
 G4 A4 | B4 c4 | A4 G4 | A4 F4 | E8 | D8 |] %169

